icons/command.svg

<svg width="24" height="24" viewBox="0 0 24 24" fill="none" xmlns="http://www.w3.org/2000/svg">
<path fill-rule="evenodd" clip-rule="evenodd" d="M6.5 5C5.67157 5 5 5.67157 5 6.5C5 7.32843 5.67157 8 6.5 8H8V6.5C8 5.67157 7.32843 5 6.5 5ZM10 8V6.5C10 4.567 8.433 3 6.5 3C4.567 3 3 4.567 3 6.5C3 8.433 4.567 10 6.5 10H8V14H6.5C4.567 14 3 15.567 3 17.5C3 19.433 4.567 21 6.5 21C8.433 21 10 19.433 10 17.5V16H14V17.5C14 19.433 15.567 21 17.5 21C19.433 21 21 19.433 21 17.5C21 15.567 19.433 14 17.5 14H16V10H17.5C19.433 10 21 8.433 21 6.5C21 4.567 19.433 3 17.5 3C15.567 3 14 4.567 14 6.5V8H10ZM10 10V14H14V10H10ZM16 8H17.5C18.3284 8 19 7.32843 19 6.5C19 5.67157 18.3284 5 17.5 5C16.6716 5 16 5.67157 16 6.5V8ZM16 16V17.5C16 18.3284 16.6716 19 17.5 19C18.3284 19 19 18.3284 19 17.5C19 16.6716 18.3284 16 17.5 16H16ZM8 16H6.5C5.67157 16 5 16.6716 5 17.5C5 18.3284 5.67157 19 6.5 19C7.32843 19 8 18.3284 8 17.5V16Z" fill="black"/>
</svg>

<svg
  width="24"
  height="24"
  viewBox="0 0 24 24"
  xmlns="http://www.w3.org/2000/svg"
>
  <path
    fill-rule="evenodd"
    clip-rule="evenodd"
    d="M6.5 5a1.5 1.5 0 1 0 0 3H8V6.5A1.5 1.5 0 0 0 6.5 5zM10 8V6.5A3.5 3.5 0 1 0 6.5 10H8v4H6.5a3.5 3.5 0 1 0 3.5 3.5V16h4v1.5a3.5 3.5 0 1 0 3.5-3.5H16v-4h1.5A3.5 3.5 0 1 0 14 6.5V8h-4zm0 2v4h4v-4h-4zm6-2h1.5A1.5 1.5 0 1 0 16 6.5V8zm0 8v1.5a1.5 1.5 0 1 0 1.5-1.5H16zm-8 0H6.5A1.5 1.5 0 1 0 8 17.5V16z"
  />
</svg>
